X:14
T:Polonäs ur Gustav Landins notbok (nr 14)
O:Möklinta, Västmanland
R:Slängpolska
B:Jämför +
M:3/4
L:1/16
Z:Nils L
S:efter Gustav Landin
D:Det durar - Josefina Paulson & Carina Normansson, NuTrad (spår 13)
K:C
cdef g2ga f2fg | e2ef "^?"d2"^?"d2 cBAG | A_BAG F2E2D2C2 | G2AB c4 C4 ::
E4 F2GA G4 | FEDC FEDC G4 | E4 F2GA G4 | FEDC FEDC G4 | 
GABc d2e2f2g2 | edcB c4 C4 :|

